src/lib/packages/icons/src/assets/filled/reddit.svg

<svg width="24" height="24" viewBox="0 0 24 24" fill="none" xmlns="http://www.w3.org/2000/svg">
<path d="M18.96 10.22C18.48 10.24 18.02 10.43 17.67 10.77C16.24 9.79999 14.53 9.16999 12.8 9.04999L13.65 5.29999L15.51 5.67001C15.67 6.67001 16.53 7.45001 17.58 7.45001C18.74 7.45001 19.68 6.51001 19.68 5.35001C19.68 4.19001 18.74 3.25 17.58 3.25C16.84 3.25 16.2 3.62999 15.82 4.20999L13.23 3.69C12.83 3.61 12.44 3.86001 12.35 4.26001L11.31 8.82999C11.3 8.88999 11.28 8.97 11.26 9.06C9.49996 9.15 7.78997 9.7 6.32997 10.69C5.53997 9.94 4.28996 9.97999 3.53996 10.77C2.78996 11.56 2.82996 12.81 3.61996 13.56C3.77996 13.71 3.94996 13.83 4.14996 13.92C4.12996 14.12 4.12996 14.32 4.14996 14.51C4.14996 17.54 7.67997 20 12.03 20C16.38 20 19.91 17.54 19.91 14.51C19.93 14.31 19.93 14.11 19.91 13.92C20.59 13.58 21.02 12.88 21 12.12C20.96 11.03 20.05 10.18 18.96 10.22ZM17.58 4.75C17.91 4.75 18.18 5.02001 18.18 5.35001C18.18 5.68001 17.91 5.95001 17.58 5.95001C17.25 5.95001 16.98 5.68001 16.98 5.35001C16.98 5.02001 17.25 4.75 17.58 4.75ZM7.48997 13.47C7.48997 12.72 8.08997 12.12 8.83997 12.12C9.58997 12.12 10.19 12.73 10.19 13.47C10.19 14.21 9.58997 14.82 8.83997 14.82C8.08997 14.82 7.48997 14.21 7.48997 13.47ZM15.34 17.24C15.34 17.24 14 18.23 12 18.23C10.8 18.28 9.61997 17.91 8.65997 17.19C8.52997 17.03 8.54998 16.8 8.70998 16.68C8.83998 16.57 9.03997 16.57 9.16997 16.68C9.97997 17.28 10.83 17.53 11.98 17.53C13.13 17.53 13.98 17.29 14.8 16.71C14.95 16.56 15.19 16.57 15.33 16.71C15.48 16.86 15.47 17.1 15.33 17.24H15.34ZM15.1 14.82C14.35 14.82 13.75 14.21 13.75 13.47C13.75 12.73 14.36 12.12 15.1 12.12C15.84 12.12 16.45 12.73 16.45 13.47C16.45 14.21 15.85 14.82 15.1 14.82Z" fill="currentColor"/>
</svg>

<svg xmlns="http://www.w3.org/2000/svg" width="24" height="24" fill="none"><path fill="currentColor" d="M18.96 10.22c-.48.02-.94.21-1.29.55-1.43-.97-3.14-1.6-4.87-1.72l.85-3.75 1.86.37c.16 1 1.02 1.78 2.07 1.78a2.1 2.1 0 1 0 0-4.2c-.74 0-1.38.38-1.76.96l-2.59-.52c-.4-.08-.79.17-.88.57l-1.04 4.57c-.01.06-.03.14-.05.23-1.76.09-3.47.64-4.93 1.63a1.975 1.975 0 1 0-2.18 3.23c-.02.2-.02.4 0 .59 0 3.03 3.53 5.49 7.88 5.49s7.88-2.46 7.88-5.49c.02-.2.02-.4 0-.59.68-.34 1.11-1.04 1.09-1.8a1.969 1.969 0 0 0-2.04-1.9Zm-1.38-5.47c.33 0 .6.27.6.6 0 .33-.27.6-.6.6-.33 0-.6-.27-.6-.6 0-.33.27-.6.6-.6ZM7.49 13.47a1.35 1.35 0 1 1 2.699.002 1.35 1.35 0 0 1-2.699-.002Zm7.85 3.77s-1.34.99-3.34.99c-1.2.05-2.38-.32-3.34-1.04a.354.354 0 0 1 .05-.51c.13-.11.33-.11.46 0 .81.6 1.66.85 2.81.85 1.15 0 2-.24 2.82-.82.15-.15.39-.14.53 0 .15.15.14.39 0 .53h.01Zm-.24-2.42c-.75 0-1.35-.61-1.35-1.35 0-.74.61-1.35 1.35-1.35.74 0 1.35.61 1.35 1.35 0 .74-.6 1.35-1.35 1.35Z"/></svg>
